neru-light-classic/32x32/apps/simpleburn.svg

<?xml version="1.0" encoding="UTF-8" standalone="no"?>
<svg
   xmlns:dc="http://purl.org/dc/elements/1.1/"
   xmlns:cc="http://creativecommons.org/ns#"
   xmlns:rdf="http://www.w3.org/1999/02/22-rdf-syntax-ns#"
   xmlns:svg="http://www.w3.org/2000/svg"
   xmlns="http://www.w3.org/2000/svg"
   xmlns:sodipodi="http://sodipodi.sourceforge.net/DTD/sodipodi-0.dtd"
   xmlns:inkscape="http://www.inkscape.org/namespaces/inkscape"
   height="32"
   width="32"
   version="1"
   id="svg30"
   sodipodi:docname="simpleburn.svg"
   inkscape:version="0.92.4 5da689c313, 2019-01-14">
  <metadata
     id="metadata36">
    <rdf:RDF>
      <cc:Work
         rdf:about="">
        <dc:format>image/svg+xml</dc:format>
        <dc:type
           rdf:resource="http://purl.org/dc/dcmitype/StillImage" />
        <dc:title></dc:title>
      </cc:Work>
    </rdf:RDF>
  </metadata>
  <defs
     id="defs34" />
  <sodipodi:namedview
     pagecolor="#ffffff"
     bordercolor="#666666"
     borderopacity="1"
     objecttolerance="10"
     gridtolerance="10"
     guidetolerance="10"
     inkscape:pageopacity="0"
     inkscape:pageshadow="2"
     inkscape:window-width="1680"
     inkscape:window-height="972"
     id="namedview32"
     showgrid="false"
     inkscape:zoom="10.429825"
     inkscape:cx="11.976455"
     inkscape:cy="25.300497"
     inkscape:window-x="0"
     inkscape:window-y="0"
     inkscape:window-maximized="1"
     inkscape:current-layer="svg30" />
  <rect
     style="opacity:1;fill:#e8e8e7;fill-opacity:1;fill-rule:evenodd;stroke:none;stroke-width:1.03534329;stroke-linecap:round;stroke-linejoin:bevel;stroke-miterlimit:4;stroke-dasharray:none;stroke-dashoffset:0;stroke-opacity:1"
     id="rect4497-3"
     width="28.203388"
     height="28.203388"
     x="1.8983059"
     y="1.8983059"
     ry="5.575182" />
  <path
     style="opacity:1;fill:#019be2;fill-opacity:1;stroke:none;stroke-width:0.47999999;stroke-miterlimit:4;stroke-dasharray:none;stroke-opacity:1"
     d="M 6.4648438 16.103516 A 9.5399494 9.5399494 0 0 0 16 25.539062 A 9.5399494 9.5399494 0 0 0 25.533203 16.121094 A 38.372883 38.372883 0 0 1 22.521484 16.796875 A 38.372883 38.372883 0 0 1 18.714844 17.259766 A 38.372883 38.372883 0 0 1 16 17.355469 A 38.372883 38.372883 0 0 1 12.169922 17.164062 A 38.372883 38.372883 0 0 1 8.3769531 16.591797 A 38.372883 38.372883 0 0 1 6.4648438 16.103516 z "
     id="path859" />
  <circle
     style="opacity:1;fill:#3283e2;fill-opacity:1;stroke:none;stroke-width:0.47999996;stroke-miterlimit:4;stroke-dasharray:none;stroke-opacity:1"
     id="path861"
     cx="15.999999"
     cy="15.999999"
     r="10.354918" />
  <path
     style="opacity:1;fill:#00b3ed;fill-opacity:1;stroke:none;stroke-width:0.47999996;stroke-miterlimit:4;stroke-dasharray:none;stroke-opacity:1"
     d="M 16 9.7382812 A 6.2613788 6.2613788 0 0 0 9.7382812 16 A 6.2613788 6.2613788 0 0 0 9.7988281 16.806641 A 6.2613788 6.2613788 0 0 0 16 22.261719 A 6.2613788 6.2613788 0 0 0 22.199219 16.835938 A 6.2613788 6.2613788 0 0 0 22.261719 16 A 6.2613788 6.2613788 0 0 0 16 9.7382812 z "
     id="path882" />
  <circle
     r="4.1267834"
     cy="16"
     cx="16"
     id="circle879"
     style="opacity:1;fill:#e8e8e7;fill-opacity:1;stroke:none;stroke-width:0.47999999;stroke-miterlimit:4;stroke-dasharray:none;stroke-opacity:1" />
</svg>

<svg xmlns="http://www.w3.org/2000/svg" height="32" width="32" version="1"><rect width="28.203" height="28.203" x="1.898" y="1.898" ry="5.575" fill="#e8e8e7" fill-rule="evenodd"/><path d="M6.465 16.104A9.54 9.54 0 0 0 16 25.539a9.54 9.54 0 0 0 9.533-9.418 38.373 38.373 0 0 1-3.012.676 38.373 38.373 0 0 1-3.806.463 38.373 38.373 0 0 1-2.715.095 38.373 38.373 0 0 1-3.83-.19 38.373 38.373 0 0 1-3.793-.573 38.373 38.373 0 0 1-1.912-.488z" fill="#019be2"/><circle cx="16" cy="16" r="10.355" fill="#3283e2"/><path d="M16 9.738A6.261 6.261 0 0 0 9.738 16a6.261 6.261 0 0 0 .06.807A6.261 6.261 0 0 0 16 22.262a6.261 6.261 0 0 0 6.2-5.426 6.261 6.261 0 0 0 .062-.836A6.261 6.261 0 0 0 16 9.738z" fill="#00b3ed"/><circle r="4.127" cy="16" cx="16" fill="#e8e8e7"/></svg>
